X: 37
T: Mazurka in C Major, Op. 56, No. 2
C: Frederic Chopin
%%abc-version 2.0
%%abcx-abcm2ps-target-version 5.9.1 (29 Sep 2008)
%%abc-creator hum2abc beta
%%abcx-conversion-date 2021/01/17 12:55:01
%%abc-edited-by Craig Stuart Sapp
%%abcx-initial-encoding-date 2005/03/12/
%%gracespace 0 6 6
%%humdrum-veritas 2995613950
%%humdrum-veritas-data 75145276
%%linebreak <none>
%%barnumbers 0
L: 1/4
M: 3/4
N: Derived from mazurka56-2.krn
Q: "Vivace" 3/4=60
%%staves {1 2}
V: 1 clef=treble
V: 2 clef=bass
K: C
[V:1] z3 | 
[V:2] G,3- & [C,,3G,,3]- | 
[V:1] z3 | 
[V:2] G,G,G, & [C,,G,,][C,,G,,][C,,G,,] | 
[V:1] z3 | 
[V:2] G,3- & [C,,3G,,3]- | 
[V:1] z3 | 
[V:2] G,G,G, & [C,,G,,][C,,G,,][C,,G,,] | 
[V:1] zzA & C/>E/GE | 
[V:2] G,3 & [C,,3G,,3]- | 
[V:1] ^F/>D/=FE | 
[V:2] A,B,C & [C,,G,,][C,,G,,][C,,G,,] | 
[V:1] c/>B/GA & CEC | 
[V:2] [C,,3G,,3]- | 
[V:1] ^F/>D/=FE3//D// | 
[V:2] A,B,G, & [C,,G,,][C,,G,,][C,,G,,] | 
[V:1] C/>E/GA & CG,E | 
[V:2] [C,,3G,,3]- | 
[V:1] ^F/>D/=FE | 
[V:2] A,B,C & [C,,G,,][C,,G,,][C,,G,,] | 
[V:1] c/>B/GA & CEC | 
[V:2] [C,,3G,,3]- | 
[V:1] ^F/>D/=FE3//A// | 
[V:2] A,B,C & [C,,G,,][C,,G,,][C,,G,,] | 
[V:1] G/>B/de & [F3G3-] | 
[V:2] [C,,3G,,3]- | 
[V:1] c/>B/GA & [EG]EC- | 
[V:2] [C,,G,,][C,,G,,][C,,G,,] | 
[V:1] G/>^F/D=F & CA,B, | 
[V:2] [C,,3G,,3D,3] | 
[V:1] [CE]C[CG-] | 
[V:2] E,E,G, & [C,,G,,][C,,G,,][C,,G,,E,] | 
[V:1] G/>B/de & [F3G3-] | 
[V:2] [C,,3G,,3D,3] | 
[V:1] c/>B/GA & [EG]EC- | 
[V:2] [C,,G,,E,][C,,G,,E,][C,,G,,E,] | 
[V:1] G/>^F/DE & CA,B, | 
[V:2] [C,,3G,,3D,3] | 
[V:1] C2G- & C2C | 
[V:2] E,E,[E,G,] & [C,,G,,][C,,G,,][C,,G,,] | 
[V:1] G/>B/de & [F3G3-] | 
[V:2] [C,,3G,,3D,3] | 
[V:1] c/>B/GA & [EG]EC- | 
[V:2] [C,,G,,E,][C,,G,,E,][C,,G,,E,] | 
[V:1] G/>^F/D=F & CA,B, | 
[V:2] [C,,3G,,3D,3] | 
[V:1] [CE]C[G,CG-] | 
[V:2] [C,,G,,E,][C,,G,,E,][C,,G,,E,] | 
[V:1] G/>B/de & [F3G3-] | 
[V:2] [C,,3G,,3D,3] | 
[V:1] c/>B/GA & [EG]zC- | 
[V:2] [C,,G,,E,][C,,G,,E,][C,,G,,E,] | 
[V:1] G/>^F/DE & CA,B, | 
[V:2] [C,,3G,,3D,3] | 
[V:1] C2z & C2z ]|:  
[V:2] E,E,E, & [C,,G,,][C,,G,,]z ]|:  
[V:1] z.[CE].[EA] | 
[V:2] E,/^F,/^G,/A,/B,/C/ & A,,zz | 
[V:1] z.[D^G][DG] | 
[V:2] (3C/D/C/B,E | 
[V:1] F/>E/zz & z[CA][B,^DA] | 
[V:2] zA,B, | 
[V:1] [B,E^G][A,B,^D^FB].[EGe] | 
[V:2] E,B,,[E,,E,] | 
[V:1] z[CE].[EA] | 
[V:2] E,/^F,/^G,/A,/B,/C/ & A,,zz | 
[V:1] z.[D^G].[DG] | 
[V:2] (3C/D/C/B,E | 
[V:1] zzB3//c// & F/>E/[CA][D^G] | 
[V:2] zA,E, | 
[V:1] [CA].[DE^GBe].[Aca] :|]  
[V:2] [A,,A,].[E,,E,].[A,,,A,,] :|]  
[V:1] z^d/^c/d/e/ & zAA | 
[V:2] [B,,,B,,][B,^F][B,F] | 
[V:1] ^f/^g<eB/ & z^GG | 
[V:2] z[E,B,][E,B,] | 
[V:1] =d^c/B/c/d/ & z=GG | 
[V:2] z[A,E][A,E] | 
[V:1] e/^f<dA/ & z^FF | 
[V:2] z[D,A,][D,A,] | 
[V:1] =cB/A/B/c/ & z=FF | 
[V:2] z[G,D][G,D] | 
[V:1] d/e/z[DFB] & z[Ec]z | 
[V:2] z[C,,C,][D,,D,] | 
[V:1] z[^G,DE][G,DE] | 
[V:2] E,>F,E, | 
[V:1] z.[A,CEA]!wedge![Acea] | 
[V:2] D,C,/B,,/A,, | 
[V:1] z^d/^c/d/e/ & zAA- | 
[V:2] .[B,,,B,,][B,^F][B,F]- | 
[V:1] ^f/^g<eB/ & A^GG- | 
[V:2] [B,F][E,B,][E,B,]- | 
[V:1] =d^c/B/c/d/ & G=GG- | 
[V:2] [E,B,][A,E][A,E]- | 
[V:1] e/^f<dA/ & G^FF- | 
[V:2] [A,E][D,A,][D,A,]- | 
[V:1] =cB/A/B/c/ & F=FF- | 
[V:2] [D,A,][G,D][G,D] | 
[V:1] d/e/zz & F[Ec][DFB] | 
[V:2] z[C,,C,][D,,D,] | 
[V:1] z[^G,DE][G,DE] | 
[V:2] E,>F,E, | 
[V:1] z.[EA].[Acea] | 
[V:2] z.[A,C]z & D,!wedge!C,/>B,,/A,, | 
[V:1] =G/A/B/c/d/e/ | 
[V:2] [C,3=G,3-] | 
[V:1] ^f/g/f/d/e/c/ | 
[V:2] G,/A,/B,/C/D/E/ | 
[V:1] d/e/dc/A/ & ^F/G/F/D/E/C/ | 
[V:2] z3 | 
[V:1] [=F2G2][Ec] | 
[V:2] D/E/DC/A,/ | 
[V:1] G/A/B/c/d/e/ | 
[V:2] G,2C & C,3 | 
[V:1] ^f/g/f/d/e/c/ | 
[V:2] G,/A,/B,/C/D/E/ | 
[V:1] d/e/d/B/c/A/ & ^F/G/F/D/E/C/ | 
[V:2] z3 | 
[V:1] G3- & =F2E | 
[V:2] D/E/D/B,/C/A,/ | 
[V:1] G/A/B/c/d/e/ | 
[V:2] [C,3G,3-] | 
[V:1] ^f/g/f/d/e/c/ | 
[V:2] G,/A,/B,/C/D/E/ | 
[V:1] d/e/dc/A/ & ^F/G/F/D/E/C/ | 
[V:2] z3 | 
[V:1] [=F2G2][Ec] | 
[V:2] D/E/DC/A,/ | 
[V:1] G/A/B/c/d/e/ | 
[V:2] G,2C & C,3 | 
[V:1] ^f/g/f/d/e/c/ | 
[V:2] G,/A,/B,/C/D/E/ | 
[V:1] d/e/d/B/c/A/ & ^F/G/F/D/E/C/ | 
[V:2] z3 | 
[V:1] [=F3G3-] | 
[V:2] D/E/D/B,/C/A,/ | 
[V:1] G/>B/de & [F3G3-] | 
[V:2] [C,3G,3] | 
[V:1] c/>B/GA & .[E2G2]z | 
[V:2] [C,,3G,,3]- | 
[V:1] G/>^F/D=F & DA,B, | 
[V:2] [C,,3G,,3]- | 
[V:1] [CE][E,C][G,CG-] | 
[V:2] [C,,G,,][C,,G,,][C,,G,,E,] | 
[V:1] G/>B/de & [F3G3-] | 
[V:2] [C,,3G,,3D,3] | 
[V:1] c/>B/GA & [EG]EC- | 
[V:2] [C,,G,,E,][C,,G,,E,][C,,G,,E,] | 
[V:1] G/>^F/DE & CA,B, | 
[V:2] [C,,3G,,3D,3] | 
[V:1] C2[CG-] | 
[V:2] E,E,G, & [C,,G,,][C,,G,,][C,,G,,E,] | 
[V:1] G/>B/de & [F3G3-] | 
[V:2] [C,,3G,,3D,3] | 
[V:1] c/>B/GA & [EG]EC- | 
[V:2] [C,,G,,E,][C,,G,,E,][C,,G,,E,] | 
[V:1] G/>^F/D=F & CA,B, | 
[V:2] [C,,3G,,3D,3] | 
[V:1] [CE]C[G,CG-] | 
[V:2] [C,,G,,E,][C,,G,,E,][C,,G,,E,] | 
[V:1] G/>B/de & [F3G3-] | 
[V:2] [C,,3G,,3D,3] | 
[V:1] c/>B/GA & [EG]EC- | 
[V:2] [C,,G,,E,][C,,G,,E,][C,,G,,E,] | 
[V:1] G/>^F/DE & CA,B, | 
[V:2] [C,,3G,,3D,3] | 
[V:1] [E,C][cc']z |]  
[V:2] [C,,G,,][C,G,E]z |]  


